icons/device-camera-video-24.svg

<svg xmlns="http://www.w3.org/2000/svg" width="24" height="24" viewBox="0 0 24 24"><path d="M24 5.25v13a.75.75 0 01-1.136.643L16.5 15.075v2.175A1.75 1.75 0 0114.75 19h-13A1.75 1.75 0 010 17.25v-11C0 5.284.784 4.5 1.75 4.5h13c.966 0 1.75.784 1.75 1.75v2.175l6.364-3.818A.75.75 0 0124 5.25zm-9 1a.25.25 0 00-.25-.25h-13a.25.25 0 00-.25.25v11c0 .138.112.25.25.25h13a.25.25 0 00.25-.25v-11zm1.5 7.075l6 3.6V6.575l-6 3.6z"/></svg>

<svg xmlns="http://www.w3.org/2000/svg" width="24" height="24" viewBox="0 0 24 24">
  <defs/>
  <path d="M24,5.25 L24,18.25 C24,18.52 23.855,18.77 23.619,18.903 C23.384,19.036 23.096,19.032 22.864,18.893 L16.5,15.075 L16.5,17.25 C16.5,18.216 15.716,19 14.75,19 L1.75,19 C0.784,19 0,18.216 0,17.25 L0,6.25 C0,5.284 0.784,4.5 1.75,4.5 L14.75,4.5 C15.716,4.5 16.5,5.284 16.5,6.25 L16.5,8.425 L22.864,4.607 C23.096,4.468 23.384,4.464 23.619,4.597 C23.855,4.73 24,4.98 24,5.25 Z M15,6.25 C15,6.112 14.888,6 14.75,6 L1.75,6 C1.612,6 1.5,6.112 1.5,6.25 L1.5,17.25 C1.5,17.388 1.612,17.5 1.75,17.5 L14.75,17.5 C14.888,17.5 15,17.388 15,17.25 L15,6.25 Z M16.5,13.325 L22.5,16.925 L22.5,6.575 L16.5,10.175 Z"/>
</svg>
